packages/core/src/svgs/tokens/branded/KILT.svg

<svg width="24" height="24" viewBox="0 0 24 24" fill="none" xmlns="http://www.w3.org/2000/svg">
<path d="M7.625 2H11.375V13.9999L10.4375 11.9999L11.375 16.9688V22H7.625V2Z" fill="#8C175B"/>
<path d="M15.6625 2H19.4999L14.5875 10.75H10.7499L15.6625 2ZM15.3313 22H19.4999L14.1438 11.9999H10.1251L15.3313 22ZM5.08125 10.75H18.9188C19.2437 10.75 19.4999 11.0375 19.4999 11.3749C19.4999 11.7249 19.2311 11.9999 18.9188 11.9999H5.08125C4.75626 11.9999 4.5 11.7125 4.5 11.3749C4.5 11.0375 4.76876 10.75 5.08125 10.75Z" fill="#8C175B"/>
</svg>

<svg xmlns="http://www.w3.org/2000/svg" width="24" height="24" fill="none" viewBox="0 0 24 24">
    <path fill="#8C175B" d="M7.625 2h3.75v12l-.937-2 .937 4.969V22h-3.75z"/>
    <path fill="#8C175B" d="M15.663 2H19.5l-4.912 8.75H10.75zm-.332 20H19.5l-5.356-10h-4.019zM5.081 10.75H18.92c.325 0 .58.287.58.625 0 .35-.268.625-.58.625H5.08c-.325 0-.581-.287-.581-.625s.269-.625.581-.625"/>
</svg>
